Breeze Round Light/places/16/mail-message.svg

<svg xmlns="http://www.w3.org/2000/svg" viewBox="0 0 16 16">
  <defs id="defs3051">
    <style type="text/css" id="current-color-scheme">
      .ColorScheme-Text {
        color:#232629;
      }
      </style>
  </defs>
    <path 
        style="fill:currentColor;fill-opacity:1;stroke:none" 
        d="M 3 2 L 3 3 L 3 6 L 2 6 L 1 6 L 1 7 L 1 13 L 1 14 L 15 14 L 15 13 L 15 6 L 13.013672 6 L 13.013672 5.5859375 L 13 5.5996094 L 13 3 L 13 2 L 3 2 z M 4 3 L 12 3 L 12 6.5996094 L 11.599609 7 L 11.585938 7 L 8 10.585938 L 4.4140625 7 L 4 6.5859375 L 4 3 z M 5 4 L 5 5 L 11 5 L 11 4 L 5 4 z M 5 6 L 5 7 L 11 7 L 11 6 L 5 6 z M 2 7 L 3 7 L 5 9 L 5.7070312 9.7070312 L 8 12 L 10.292969 9.7070312 L 11 9 L 13 7 L 13.013672 7 L 14 7 L 14 13 L 2 13 L 2 7 z " 
          class="ColorScheme-Text"/>
</svg>

<?xml version="1.0" encoding="UTF-8" standalone="no"?>
<svg
   viewBox="0 0 16 16"
   version="1.1"
   id="svg1"
   sodipodi:docname="mail-message.svg"
   inkscape:version="1.3.2 (091e20ef0f, 2023-11-25)"
   xmlns:inkscape="http://www.inkscape.org/namespaces/inkscape"
   xmlns:sodipodi="http://sodipodi.sourceforge.net/DTD/sodipodi-0.dtd"
   xmlns="http://www.w3.org/2000/svg"
   xmlns:svg="http://www.w3.org/2000/svg">
  <sodipodi:namedview
     id="namedview1"
     pagecolor="#ffffff"
     bordercolor="#999999"
     borderopacity="1"
     inkscape:showpageshadow="2"
     inkscape:pageopacity="0"
     inkscape:pagecheckerboard="0"
     inkscape:deskcolor="#d1d1d1"
     inkscape:zoom="47.75"
     inkscape:cx="8"
     inkscape:cy="8"
     inkscape:window-width="1920"
     inkscape:window-height="996"
     inkscape:window-x="0"
     inkscape:window-y="0"
     inkscape:window-maximized="1"
     inkscape:current-layer="svg1" />
  <defs
     id="defs3051">
    <style
       type="text/css"
       id="current-color-scheme">.ColorScheme-Text {color:#fcfcfc;}</style>
  </defs>
  <path
     style="fill:#000000"
     d="m 3,2 v 1 3 c 0,0 -2,0 -2,2 0,2 0,4 0,4 0,0 0,2 2,2 2,0 8,0 10,0 2,0 2,-2 2,-2 0,0 0,-2 0,-4 C 15,6 13,6 13,6 V 5.6 5.6 3 2 Z m 1,1 h 8 V 6.6 L 11.6,7 V 7 L 8,10.6 4.4,7 4,6.6 Z m 1,1 v 1 h 6 V 4 Z m 0,2 v 1 h 6 V 6 Z M 2,8 C 2,7 3,7 3,7 L 5,9 5.7,9.7 8,12 10.3,9.7 11,9 13,7 v 0 c 0,0 1,0 1,1 0,1 0,4 0,4 0,0 0,1 -1,1 C 12,13 4,13 3,13 2,13 2,12 2,12 2,12 2,9 2,8 Z"
     class="ColorScheme-Text"
     id="path1" />
</svg>
